X: 2 % start of header
T:Iridis Alpha Title Theme
T:6 of 100,000,000,000,000
C: (Sid.)
O: Jeff Minter
R:Procedurally Generated
L: 1/8
K: D % scale: C major
V:1 name="Voice 1"
C,16    |     |     |     | C,16    |     |     |     | C,16    |     |     |     | G,16    |     |     |     | C,16    |     |     |     | C,16    |     |     |     | C,16    |     |     |     | G,16    |     |     |     | C,16    |     |     |     | C,16    |     |     |     | C,16    |     |     |     | G,16    |     |     |     | C,16    |     |     |     | C,16    |     |     |     | C,16    |     |     |     | G,16    |     |     |     | :|
V:2 name="Voice 2"
C,4    | C,4    | C,4    | G,4    | C,4    | C,4    | C,4    | G,4    | C,4    | C,4    | C,4    | G,4    | G,4    | G,4    | G,4    | D4    | C,4    | C,4    | C,4    | G,4    | C,4    | C,4    | C,4    | G,4    | C,4    | C,4    | C,4    | G,4    | G,4    | G,4    | G,4    | D4    | C,4    | C,4    | C,4    | G,4    | C,4    | C,4    | C,4    | G,4    | C,4    | C,4    | C,4    | G,4    | G,4    | G,4    | G,4    | D4    | C,4    | C,4    | C,4    | G,4    | C,4    | C,4    | C,4    | G,4    | C,4    | C,4    | C,4    | G,4    | G,4    | G,4    | G,4    | D4    | :|
V:3 name="Voice 3"
C,1C,1C,1G,1|C,1C,1C,1G,1|C,1C,1C,1G,1|G,1G,1G,1D1|C,1C,1C,1G,1|C,1C,1C,1G,1|C,1C,1C,1G,1|G,1G,1G,1D1|C,1C,1C,1G,1|C,1C,1C,1G,1|C,1C,1C,1G,1|G,1G,1G,1D1|G,1G,1G,1D1|G,1G,1G,1D1|G,1G,1G,1D1|D1D1D1A1|C,1C,1C,1G,1|C,1C,1C,1G,1|C,1C,1C,1G,1|G,1G,1G,1D1|C,1C,1C,1G,1|C,1C,1C,1G,1|C,1C,1C,1G,1|G,1G,1G,1D1|C,1C,1C,1G,1|C,1C,1C,1G,1|C,1C,1C,1G,1|G,1G,1G,1D1|G,1G,1G,1D1|G,1G,1G,1D1|G,1G,1G,1D1|D1D1D1A1|C,1C,1C,1G,1|C,1C,1C,1G,1|C,1C,1C,1G,1|G,1G,1G,1D1|C,1C,1C,1G,1|C,1C,1C,1G,1|C,1C,1C,1G,1|G,1G,1G,1D1|C,1C,1C,1G,1|C,1C,1C,1G,1|C,1C,1C,1G,1|G,1G,1G,1D1|G,1G,1G,1D1|G,1G,1G,1D1|G,1G,1G,1D1|D1D1D1A1|C,1C,1C,1G,1|C,1C,1C,1G,1|C,1C,1C,1G,1|G,1G,1G,1D1|C,1C,1C,1G,1|C,1C,1C,1G,1|C,1C,1C,1G,1|G,1G,1G,1D1|C,1C,1C,1G,1|C,1C,1C,1G,1|C,1C,1C,1G,1|G,1G,1G,1D1|G,1G,1G,1D1|G,1G,1G,1D1|G,1G,1G,1D1|D1D1D1A1|:|
